X:934
T:Slow Scotch
S:Bruce & Emmett's Drummers and Fifers Guide (1862), p. 93
M:2/4
L:1/8
Q:1/4=90
K:G
%%MIDI program 72
%%MIDI transpose 8
%%MIDI ratio 3 1
A2a2|e2 cA|E2g2|d2 BG|A2a2|e2 cA|BA^GB|A2-"^fine"A::
A|ABcd|ef g2|fagf|edcB|ABcd|efg2|fagf|"^D.C. al fine"e2-e:|
